X: 8
T: The Road To Skye
R: jig
M: 6/8
L: 1/8
K: Amaj
|:GFG DBD|GBd e2d|gdB BAB|cBc E2F|GFG DBD|GBd e2d|gdB BAB|cEF G3:||:GBd GBd|GBd cBA|GBd efg|fd^c def|geg fdf|ece dcB|cBc Adc|BGF G3:|


Tune 1709	Setting 15130

